packages/kaspersky-hexa-ui-icons/src/iconsSVGs/48/ScanRadar01.svg

<svg xmlns="http://www.w3.org/2000/svg" width="48" height="48" fill="none" viewBox="0 0 48 48"><path fill="currentColor" fill-rule="evenodd" d="M26.6265 26.4206c.3615.4171.3167 1.0482-.1 1.41-.27.23-.56.46-.85.68a1 1 0 0 1-.59.19 1 1 0 0 1-.59-1.81q.38-.27.72-.57c.4171-.3614 1.0481-.3167 1.41.1m-4.56 1.81a8.1 8.1 0 0 1-.87.31c-.5523.0801-.9351.5928-.855 1.145s.5927.9351 1.145.855a1 1 0 0 0 .29 0 9 9 0 0 0 1-.36 1 1 0 0 0 .56-1.3 1 1 0 0 0-1.27-.65m6.05-14.57a1 1 0 0 0 .92.61 1.09 1.09 0 0 0 .39-.08 1 1 0 0 0 .52-1.32c-.14-.33-.3-.66-.47-1a1 1 0 0 0-1.76.94c.14.29.29.57.4.85m.76 2.66c0 .31.08.61.1.93a1 1 0 0 0 1 .93h.03c.5488-.0374.9643-.511.93-1.06 0-.37-.07-.73-.12-1.09a1 1 0 0 0-1.14-.84 1 1 0 0 0-.8 1.13m1.13 2.89c-.5408-.0973-1.0588.26-1.16.8q-.09.46-.21.9a1 1 0 0 0 .71 1.23.75.75 0 0 0 .26 0 1 1 0 0 0 1-.74c.1-.35.18-.71.25-1.07a1 1 0 0 0-.85-1.12m-1.06 3.89a1.0004 1.0004 0 0 0-1.37.37c-.15.27-.32.53-.49.78-.314.4531-.2022 1.0748.25 1.39a1 1 0 0 0 .57.18 1 1 0 0 0 .83-.43c.2-.3.4-.61.58-.93a1 1 0 0 0-.39-1.36zm-5-5.82a1 1 0 0 0 1 .89h.12c.5459-.0677.9347-.5636.87-1.11a7.66 7.66 0 0 0-.22-1.16c-.1464-.5329-.6971-.8463-1.23-.7-.533.1464-.8464.6971-.7 1.23.0932.2778.1667.5619.22.85zm-2.52 7.83a1 1 0 0 0 .49-.13 7.9 7.9 0 0 0 1-.65 1 1 0 0 0-1.22-1.58 8.6 8.6 0 0 1-.74.49c-.4798.2712-.6497.8794-.38 1.36a1 1 0 0 0 .87.51zm3.7-3.49a7.25 7.25 0 0 0 .45-1.08.9999.9999 0 0 0-1.1412-1.36 1 1 0 0 0-.7488.72 7.4 7.4 0 0 1-.34.82c-.2469.4917-.0503 1.0905.44 1.34a1 1 0 0 0 .45.11 1 1 0 0 0 .91-.55zm22.88 20.77-5.6 5.6-11.92-11.91 2.1-2.1-2.58-2.57c-7.3074 6.5423-18.5075 6.03-25.187-1.1521-6.6797-7.182-6.3798-18.3898.6744-25.2044 7.0541-6.8145 18.2655-6.7271 25.2126.1965h.05a.13.13 0 0 0 0 .05c6.7668 6.7475 7.0527 17.6162.65 24.71l2.57 2.58 2.1-2.1zm-14-24.38a15.93 15.93 0 0 0-4-10.57l-2.19 2.2a.9998.9998 0 0 1-1 1.25 1 1 0 0 1-.24 0l-2.34 2.33a1 1 0 0 1-.3 1 1 1 0 0 1-.66.25 1 1 0 0 1-.24 0l-4.34 4.34a1 1 0 0 1-1.42 0 1 1 0 0 1 0-1.42l4.18-4.18c-2.1035-1.5759-4.9878-1.5994-7.1166-.0578s-3.0065 4.2891-2.1656 6.7793 3.2046 4.1432 5.8322 4.0785h.43c.5491-.0401 1.0274.3711 1.07.92a1.0003 1.0003 0 0 1-.93 1.07h-.57c-3.5011.0078-6.6006-2.262-7.6499-5.6022-1.0494-3.3402.1951-6.9746 3.0717-8.9705s6.7167-1.8894 9.4782.2627l2.14-2.14a10.89 10.89 0 0 0-5.4-2.42 2 2 0 0 1-3.28 0 11 11 0 0 0-7.15 17.45 1.67 1.67 0 0 1 .39 0c1.1046 0 2 .8955 2 2a2.1 2.1 0 0 1 0 .35 11 11 0 0 0 6.4 2.08h.5c.5523 0 1 .4478 1 1s-.4477 1-1 1h-.5a12.89 12.89 0 0 1-7.73-2.58 1.9 1.9 0 0 1-.67.13c-1.1046 0-2-.8954-2-2a1.91 1.91 0 0 1 .11-.64c-2.8055-3.6663-3.456-8.5455-1.7093-12.8188C7.754 8.8284 11.6361 5.802 16.2065 5.1506a2 2 0 0 1 3.6 0 12.8 12.8 0 0 1 6.65 3l2.12-2.12C22.9158 1.0493 14.5454.6963 8.4854 5.1834S.3207 17.7795 3.4336 24.6474 14.032 35.2776 21.4007 33.678c7.3688-1.5996 12.6206-8.127 12.6058-15.6674m8.38 27.15 2.77-2.77-9.08-9.09-2.78 2.78z" clip-rule="evenodd"/></svg>

<svg width="48" height="48" viewBox="0 0 48 48" fill="none" xmlns="http://www.w3.org/2000/svg">
<path fill-rule="evenodd" clip-rule="evenodd" d="M26.6265 26.4206C26.988 26.8377 26.9432 27.4688 26.5265 27.8306C26.2565 28.0606 25.9665 28.2906 25.6765 28.5106C25.5049 28.6349 25.2983 28.7014 25.0865 28.7006C24.6523 28.7022 24.2667 28.4234 24.1321 28.0106C23.9976 27.5977 24.1448 27.1453 24.4965 26.8906C24.7498 26.7106 24.9898 26.5206 25.2165 26.3206C25.6336 25.9592 26.2646 26.0039 26.6265 26.4206ZM22.0665 28.2306C21.7826 28.3504 21.4921 28.4539 21.1965 28.5406C20.6442 28.6207 20.2614 29.1334 20.3415 29.6856C20.4216 30.2379 20.9342 30.6207 21.4865 30.5406C21.5826 30.5547 21.6803 30.5547 21.7765 30.5406C22.1166 30.4404 22.4505 30.3202 22.7765 30.1806C23.0233 30.0827 23.221 29.8906 23.3261 29.6468C23.4311 29.4029 23.4349 29.1273 23.3365 28.8806C23.2563 28.6246 23.0766 28.4115 22.8378 28.2893C22.599 28.1671 22.321 28.1459 22.0665 28.2306ZM28.1165 13.6606C28.273 14.0301 28.6352 14.2703 29.0365 14.2706C29.1703 14.2681 29.3025 14.241 29.4265 14.1906C29.6711 14.0852 29.8635 13.8866 29.9611 13.6388C30.0587 13.391 30.0535 13.1145 29.9465 12.8706C29.8065 12.5406 29.6465 12.2106 29.4765 11.8706C29.1976 11.425 28.6214 11.2714 28.1577 11.519C27.694 11.7667 27.5012 12.3311 27.7165 12.8106C27.8565 13.1006 28.0065 13.3806 28.1165 13.6606ZM28.8765 16.3206C28.8765 16.6306 28.9565 16.9306 28.9765 17.2506C29.0133 17.7754 29.4504 18.1819 29.9765 18.1806H30.0065C30.5553 18.1432 30.9708 17.6696 30.9365 17.1206C30.9365 16.7506 30.8665 16.3906 30.8165 16.0306C30.777 15.7679 30.6347 15.5317 30.4208 15.3741C30.2069 15.2165 29.9391 15.1505 29.6765 15.1906C29.15 15.292 28.7971 15.7904 28.8765 16.3206ZM30.0065 19.2106C29.4657 19.1133 28.9477 19.4706 28.8465 20.0106C28.7865 20.3173 28.7165 20.6173 28.6365 20.9106C28.5663 21.1679 28.6019 21.4426 28.7352 21.6736C28.8685 21.9045 29.0886 22.0727 29.3465 22.1406C29.4325 22.1558 29.5205 22.1558 29.6065 22.1406C30.0714 22.1566 30.4858 21.8499 30.6065 21.4006C30.7065 21.0506 30.7865 20.6906 30.8565 20.3306C30.9277 19.7875 30.5488 19.2882 30.0065 19.2106ZM28.9465 23.1006C28.716 22.9671 28.4417 22.9311 28.1845 23.0005C27.9273 23.07 27.7084 23.2392 27.5765 23.4706C27.4265 23.7406 27.2565 24.0006 27.0865 24.2506C26.7725 24.7037 26.8843 25.3254 27.3365 25.6406C27.5037 25.7574 27.7026 25.8202 27.9065 25.8206C28.2372 25.8234 28.548 25.6624 28.7365 25.3906C28.9365 25.0906 29.1365 24.7806 29.3165 24.4606C29.4452 24.2286 29.4765 23.9549 29.4033 23.6998C29.3302 23.4447 29.1586 23.2292 28.9265 23.1006H28.9465ZM23.9465 17.2806C24.0028 17.7896 24.4345 18.1737 24.9465 18.1706H25.0665C25.6124 18.1029 26.0012 17.607 25.9365 17.0606C25.8931 16.6689 25.8196 16.2811 25.7165 15.9006C25.5701 15.3677 25.0194 15.0543 24.4865 15.2006C23.9535 15.347 23.6401 15.8977 23.7865 16.4306C23.8797 16.7084 23.9532 16.9925 24.0065 17.2806H23.9465ZM21.4265 25.1106C21.5983 25.1101 21.767 25.0653 21.9165 24.9806C22.2657 24.7894 22.6 24.5721 22.9165 24.3306C23.314 23.9826 23.3721 23.3853 23.0492 22.9672C22.7263 22.549 22.1338 22.4541 21.6965 22.7506C21.4584 22.9266 21.2114 23.0902 20.9565 23.2406C20.4767 23.5118 20.3068 24.12 20.5765 24.6006C20.7533 24.9151 21.0857 25.11 21.4465 25.1106H21.4265ZM25.1265 21.6206C25.3053 21.2734 25.4558 20.9122 25.5765 20.5406C25.7199 20.1958 25.6593 19.7999 25.4192 19.5138C25.1792 19.2277 24.7997 19.0992 24.4353 19.1806C24.0708 19.262 23.7821 19.5396 23.6865 19.9006C23.5896 20.1805 23.4761 20.4543 23.3465 20.7206C23.0996 21.2123 23.2962 21.8111 23.7865 22.0606C23.9258 22.132 24.0799 22.1697 24.2365 22.1706C24.6202 22.1771 24.9738 21.9634 25.1465 21.6206H25.1265ZM48.0065 42.3906L42.4065 47.9906L30.4865 36.0806L32.5865 33.9806L30.0065 31.4106C22.6991 37.9529 11.499 37.4406 4.81942 30.2585C-1.86019 23.0765 -1.56029 11.8687 5.49385 5.05414C12.548 -1.76042 23.7594 -1.67304 30.7065 5.25064H30.7565C30.7533 5.26715 30.7533 5.28413 30.7565 5.30064C37.5233 12.0481 37.8092 22.9168 31.4065 30.0106L33.9765 32.5906L36.0765 30.4906L48.0065 42.3906ZM34.0065 18.0106C34.0098 14.1169 32.5868 10.3567 30.0065 7.44064L27.8165 9.64064C27.8954 9.94559 27.826 10.2699 27.6292 10.5158C27.4325 10.7618 27.1313 10.9007 26.8165 10.8906C26.7368 10.9003 26.6562 10.9003 26.5765 10.8906L24.2365 13.2206C24.3322 13.5839 24.2164 13.9701 23.9365 14.2206C23.7542 14.3814 23.5196 14.4703 23.2765 14.4706C23.1968 14.4803 23.1162 14.4803 23.0365 14.4706L18.6965 18.8106C18.5087 19 18.2531 19.1064 17.9865 19.1064C17.7198 19.1064 17.4643 19 17.2765 18.8106C17.0872 18.6229 16.9807 18.3673 16.9807 18.1006C16.9807 17.834 17.0872 17.5784 17.2765 17.3906L21.4565 13.2106C19.353 11.6347 16.4687 11.6112 14.3399 13.1528C12.2111 14.6943 11.3334 17.4419 12.1743 19.9321C13.0152 22.4223 15.3789 24.0753 18.0065 24.0106H18.4365C18.9856 23.9705 19.4639 24.3817 19.5065 24.9306C19.5257 25.196 19.4384 25.4581 19.2639 25.6589C19.0893 25.8597 18.8419 25.9827 18.5765 26.0006H18.0065C14.5054 26.0084 11.4059 23.7386 10.3566 20.3984C9.30722 17.0582 10.5517 13.4238 13.4283 11.4279C16.3048 9.432 20.145 9.53846 22.9065 11.6906L25.0465 9.55064C23.5044 8.26102 21.6353 7.42343 19.6465 7.13064C19.2724 7.66657 18.6601 7.98592 18.0065 7.98592C17.3529 7.98592 16.7406 7.66657 16.3665 7.13064C12.5496 7.71589 9.31904 10.2597 7.85494 13.8329C6.39085 17.4061 6.90762 21.4854 9.21649 24.5806C9.34604 24.5654 9.47693 24.5654 9.60649 24.5806C10.7111 24.5806 11.6065 25.4761 11.6065 26.5806C11.6163 26.6971 11.6163 26.8142 11.6065 26.9306C13.4701 28.2755 15.7082 29.0029 18.0065 29.0106H18.5065C19.0588 29.0106 19.5065 29.4584 19.5065 30.0106C19.5065 30.5629 19.0588 31.0106 18.5065 31.0106H18.0065C15.2186 31.0092 12.5064 30.1039 10.2765 28.4306C10.0628 28.5141 9.83583 28.5581 9.60649 28.5606C8.50192 28.5606 7.60649 27.6652 7.60649 26.5606C7.60635 26.3426 7.64356 26.1261 7.71649 25.9206C4.91101 22.2543 4.26041 17.3751 6.0072 13.1018C7.75398 8.8284 11.6361 5.80201 16.2065 5.15064C16.5407 4.46066 17.2398 4.02242 18.0065 4.02242C18.7731 4.02242 19.4723 4.46066 19.8065 5.15064C22.2672 5.4844 24.5778 6.52674 26.4565 8.15064L28.5765 6.03064C22.9158 1.04928 14.5454 0.696282 8.48539 5.18335C2.42538 9.67041 0.320686 17.7795 3.43358 24.6474C6.54647 31.5152 14.032 35.2776 21.4007 33.678C28.7695 32.0784 34.0213 25.551 34.0065 18.0106ZM42.3865 45.1606L45.1565 42.3906L36.0765 33.3006L33.2965 36.0806L42.3865 45.1606Z"  fill="currentColor"/>
</svg>
